!!!COM: Haydn, Franz Joseph
!!!OTL: String Quartet in D Major
!!!OPS: Opus 76
!!!ONM: No. 5
!!!OMD: Menuetto: Allegro
!!!OMV: 3
!!!SCT: H III:79
!!!SCA: Thematisch-bibliographisches Werkevererzeichnis (A. van Hoboken)
!!!YOR: Trautwein Edition
!!!ENC: Frances Bennion
!!!CDT: 1732/3/31/-1809/5/31/
!!!CNT: Oesterreich
!!!YEC: Copyright (c) 1994, 2000 Center for Computer Assisted Research in the Humanities
!!!YEM: Rights to all derivative editions reserved.
!!!YEM: Refer to licensing agreement for further details.
!!!YEN: United States of America
**kern	**kern	**kern	**kern
*k[f#c#]	*k[f#c#]	*k[f#c#]	*k[f#c#]
*D:	*D:	*D:	*D:
*clefF4	*clefC3	*clefF	*clefF
*M3/4	*M3/4	*M3/4	*M3/4
2r	2r	2r	2r
4r	4r	4r	4A
=1	=1	=1	=1
2DD	2F#	2d	4d
.	.	.	4f#
4FF#	4D	4A	4a
=2	=2	=2	=2
2.GG	4D	2.B	4a
.	4E	.	4g
.	4F#	.	4f#
=3	=3	=3	=3
2.AA	2.G	2.c#	4e
.	.	.	4d
.	.	.	4e
=4	=4	=4	=4
4D	8G	8c#	8e
.	8F#	8d	8f#
2r	4F#	4d	4d
.	4F#	4d	4dd
=5	=5	=5	=5
2.r	4G	[2.d	4b
.	4F#	.	4a#
.	4G	.	4b
=6	=6	=6	=6
4r	4F#	4d]	8g#
.	.	.	8a
4r	4r	4r	4d
4DD	4a	4dd	4ff#
=7	=7	=7	=7
2.E	2.B	2.d	4g#
.	.	.	4f#
.	.	.	4g#
=8	=8	=8	=8
4AA	4A	4c#	8g#
.	.	.	8a
2r	2r	2r	4A
.	.	.	4aa
=9	=9	=9	=9
4r	4r	4r	8gg#
.	.	.	8aa
4d#	4f#	4a	4b
4r	4r	4r	8aa#
.	.	.	8bb
=10	=10	=10	=10
4e	4g	4g	4b
4r	4r	4r	8ff#
.	.	.	8gg
4c#	4e	4g	4a
=11	=11	=11	=11
4r	4r	4r	8gg#
.	.	.	8aa
4d	4f#	4f#	4a
4F#	4d	4a	8ccc#
.	.	.	8ddd
=12	=12	=12	=12
2G	4d	4b	8aa#
.	.	.	8bb
.	4r	4r	8ff#
.	.	.	8gg
4r	8a#	8aa#	8aa#
.	8b	8bb	8bb
=13	=13	=13	=13
4r	8f#	8ff#	8ff#
.	8g	8gg	8gg
4r	8d#	8dd#	8dd#
.	8e	8ee	8ee
8A#	8a#	8a#	8a#
8B	8b	8b	8b
=14	=14	=14	=14
8F#	8f#	8f#	8f#
8G	8g	8g	8g
8D#	8d#	8d#	8d#
8E	8e	8e	8e
8F#	8f#	8f#	8f#
8G	8g	8g	8g
=15	=15	=15	=15
8D#	8d#	8d#	8d#
8E	8e	8e	8e
8F#	8f#	8f#	8f#
8G	8g	8g	8g
8F#	8f#	8a	8a
8G	8g	8b	8b
=16	=16	=16	=16
4A	4a	4d	4d
4AA	4A	4c#	4c#
4r	4r	4r	4A
=17	=17	=17	=17
2DD	2F#	2d	4d
.	.	.	4f#
4FF#	4D	4A	4a
=18	=18	=18	=18
2.GG	4D	2.B	4a
.	4E	.	4g
.	4F#	.	4f#
=19	=19	=19	=19
2.AA	2.G	2.c#	4e
.	.	.	4d
.	.	.	4e
=20	=20	=20	=20
4D	8G	8c#	8e
.	8F#	8d	8f#
2r	4F#	4d	4d
.	4F#	4d	4dd
=21	=21	=21	=21
2.r	4G	[2.d	4b
.	4F#	.	4a#
.	4G	.	4b
=22	=22	=22	=22
2.r	4F#	4d]	8g#
.	.	.	8a
.	4r	4r	4d
.	4f#	4a	4aa
=23	=23	=23	=23
2.r	2e	2b	4gg
.	.	.	4ff#
.	4A	4cc#	4gg
=24	=24	=24	=24
4r	4d	8cc#	8ee#
.	.	8dd	8ff#
4r	2r	4dd	4ff#
4D	.	4r	4r
=25	=25	=25	=25
8C#	4r	4r	4r
8D	.	.	.
4FF#	4d	4dd	4ddd
8D#	4r	4r	4r
8E	.	.	.
=26	=26	=26	=26
4GG	4d	4ee	4ddd
8E#	4r	4r	4r
8F#	.	.	.
4AA	4c	4ff#	4ddd
=27	=27	=27	=27
8F#	4r	4r	4r
8G	.	.	.
4BB	4B	4gg	4ddd
4r	4r	4gg	4bb
=28	=28	=28	=28
4r	4r	8ff#	8aa#
.	.	8gg	8bb
4E	4g	4g	4g
4D	4f#	4gg	4bb
=29	=29	=29	=29
2C#	2e	2gg	8bb
.	.	.	8aa
.	.	.	4eee
4C#	4a	4ee	4gg
=30	=30	=30	=30
4D	4a	8ee	8gg
.	.	8dd	8ff#
4r	4r	4ff#	4aa
4D	4a	4a	4ff#
=31	=31	=31	=31
4GG	4g	4b	8ff#
.	.	.	8ee
4r	4r	4r	4gg
4AA	4e	4g	4cc#
=32	=32	=32	=32
4D	4d	4f#	8cc#
.	.	.	8dd
4DD	4D	4d	4d
*d:	*d:	*d:	*d:
8DD	4r	4r	4r
8EE	.	.	.
=33	=33	=33	=33
8FF	4r	4r	4r
8GG	.	.	.
8AA	4r	4r	4r
8BB-	.	.	.
8AA	4e	4c#	4cc#
8GG	.	.	.
=34	=34	=34	=34
8FF	4d	4d	4dd
8EE	.	.	.
8DD	2r	2r	2r
8EE	.	.	.
8FF	.	.	.
8GG	.	.	.
=35	=35	=35	=35
8AA	4r	4r	4r
8BB-	.	.	.
8AA	4r	4r	4r
8BB-	.	.	.
8AA	4e	4c#	4cc#
8GG	.	.	.
=36	=36	=36	=36
8FF	4d	4d	4dd
8EE	.	.	.
8DD	4r	4r	4r
8BB-	.	.	.
8AA	4e	4c#	4cc#
8GG	.	.	.
=37	=37	=37	=37
8FF	4d	4d	4dd
8EE	.	.	.
8DD	4r	4r	4r
8BB-	.	.	.
8AA	4e	4c#	4cc#
8GG	.	.	.
=38	=38	=38	=38
8FF	4d	4d	4dd
8EE	.	.	.
8DD	2r	4dd	4ff
8EE	.	.	.
8FF	.	4dd	4ff
8GG	.	.	.
=39	=39	=39	=39
8AA	4r	4dd	2ee
8GG#	.	.	.
8AA	4A	4cc	.
8BB	.	.	.
8C	4A	4a	4aa
8AA	.	.	.
=40	=40	=40	=40
8D	[2.A	2b	4aa
8C	.	.	.
8D	.	.	4r
8AA	.	.	.
8E	.	4cc	4aa
8AA	.	.	.
=41	=41	=41	=41
8F	2.A_	2dd	4aa
8E	.	.	.
8F	.	.	4r
8AA	.	.	.
8E	.	4cc	4aa
8AA	.	.	.
=42	=42	=42	=42
8D	2.A]	2b	4aa
8C	.	.	.
8D	.	.	4r
8AA	.	.	.
8C	.	4a	4aa
8AA	.	.	.
=43	=43	=43	=43
8D	2f	2.b	4aa
8C	.	.	.
8D	.	.	4r
8BB	.	.	.
8E	8e	.	4gg#
8EE	8d	.	.
=44	=44	=44	=44
4AA	4c	4a	4aa
4A	4r	4r	4r
4r	8e	4r	8cc#
.	8d	.	8dd
=45	=45	=45	=45
2.r	8c#	2.r	8ee
.	8B-	.	8ff
.	8A	.	8gg
.	8G	.	8aa
.	8F	.	8bb-
.	8E	.	8cc#
=46	=46	=46	=46
2.r	8F	2.r	8dd
.	8E	.	8ee
.	8D	.	8ff
.	8f	.	8dd
.	8e	.	8cc#
.	8d	.	8dd
=47	=47	=47	=47
2.r	8c#	2.r	8ee
.	8B-	.	8ff
.	8A	.	8gg
.	8G	.	8aa
.	8F	.	8bb-
.	8E	.	8cc#
=48	=48	=48	=48
2.r	8F	4.r	8dd
.	8E	.	8ee
.	4D	.	8ff
.	.	8ee-	8ff#
.	4r	8dd	8gg
.	.	8cc	8aa
=49	=49	=49	=49
2.r	2.r	8b-	8bb-
.	.	8a	8ccc
.	.	8g	8ddd
.	.	8dd	8ee
.	.	8cc	8ff
.	.	8b-	8gg
=50	=50	=50	=50
2.r	2.r	8a	8aa
.	.	8g	8bb-
.	.	8f	8ccc
.	.	8cc	8dd
.	.	8b-	8ee
.	.	8a	8ff
=51	=51	=51	=51
2.r	2.r	8g	8gg
.	.	8f	8aa
.	.	8e	8bb-
.	.	8f	8gg
.	.	8g	8ee
.	.	8g#	8dd
=52	=52	=52	=52
4r	2.r	4a	8cc#
.	.	.	8ee
4r	.	2r	8gg#
.	.	.	8aa
8DD	.	.	4r
8EE	.	.	.
=53	=53	=53	=53
8FF	4r	4r	4r
8GG	.	.	.
8AA	4r	4r	4r
8BB-	.	.	.
8AA	4e	4c#	4cc#
8GG	.	.	.
=54	=54	=54	=54
8FF	4d	4d	4dd
8EE	.	.	.
8DD	2r	2r	2r
8EE	.	.	.
8FF	.	.	.
8GG	.	.	.
=55	=55	=55	=55
8AA	4r	4r	4r
8BB-	.	.	.
8AA	4r	4r	4r
8BB-	.	.	.
8AA	4e	4c#	4cc#
8GG	.	.	.
=56	=56	=56	=56
8FF	4d	4d	4dd
8EE	.	.	.
8DD	4r	4r	4r
8BB-	.	.	.
8AA	4e	4c#	4cc#
8GG	.	.	.
=57	=57	=57	=57
8FF	4d	4d	4dd
8EE	.	.	.
8DD	4r	4r	4r
8BB-	.	.	.
8AA	4e	4c#	4cc#
8GG	.	.	.
=58	=58	=58	=58
8FF	4d	4d	4dd
8EE	.	.	.
8DD	4r	4r	4r
8E-	.	.	.
8D	4a	4f#	4ff#
8C	.	.	.
=59	=59	=59	=59
8BB-	4g	4g	4gg
8AA	.	.	.
8GG	4r	4r	4r
8F	.	.	.
8E	4b	4g#	4gg#
8D	.	.	.
=60	=60	=60	=60
8C#	4a	4a	4aa
8BB	.	.	.
4AA	8r	8r	8r
.	8c#	8e	8bb-
4r	8d	8f	8aa
.	8e	8g	8gg
=61	=61	=61	=61
2.r	8f	8a	8ff
.	8g	8b-	8ee
.	8f	8a	8dd
.	8c#	8e	8bb-
.	8d	8f	8aa
.	8e	8g	8gg
=62	=62	=62	=62
4.r	8f	8a	8ff
.	8g	8b-	8ee
.	8f	8a	8dd
8D	8d	8f	8ddd
8E	8e	8g	8ccc
8F	8f	8a	8bb-
=63	=63	=63	=63
4G	4g	4b-	8aa
.	.	.	8gg
2r	2r	2r	8ff
.	.	.	8ee
.	.	.	8dd
.	.	.	8cc
=64	=64	=64	=64
4A	4e	4cc#	8b-
.	.	.	8a
2r	2r	2r	8g
.	.	.	8f
.	.	.	8e
.	.	.	8a
=65	=65	=65	=65
4D	4d	4dd	4d
2r	2r	2r	2r
==	==	==	==
*-	*-	*-	*-
!!!RWG1: This file contains only pitch and duration data.
!!!RWG2: Transposing instruments are not transposed.
!!!RWG3: Spines may have incompatible meters.
!!!RWG4: Durations of rests and tied notes may be interpreted.
!!!RWG: Key is interpreted using the Humdrum key tool.
!!!GTL: 6 Quartetti ("Erdödy")
!!!AFT: stage1
!!!END: 1997/04/15
!!!KEY: 2406630156
!!!EMD: Converted from MuseData to Humdrum Dec 16, 2000, by Andreas Kornstaedt using muse2kern.
!!!EMD: Manual editing by Craig Sapp, Nov 2001
